X:613
T:Miss Clementina Stewart
R:Reel
B:The Athole Collection
M:C|
L:1/8
K:G Minor
F|B2 d/c/B fBbf|g2 g/a/b fdcA|B2 d/c/B fBbf|cAFA G/G/G G:|
F|G/G/G BG dGBG|F/F/F AF cFAF|G/G/G BG dGBG|FDFA, G,/G,/G, G,F|
G/G/G BG dGBG|F/F/F AF cFAF|G/G/G BG dGBg|fdcA G/G/G G||

